app/assets/images/icons/active/shopping.svg

<?xml version="1.0" encoding="UTF-8" standalone="no"?>
<svg width="32px" height="232px" viewBox="0 0 32 232" version="1.1" xmlns="http://www.w3.org/2000/svg" xmlns:xlink="http://www.w3.org/1999/xlink" xmlns:sketch="http://www.bohemiancoding.com/sketch/ns">
    <title>shopping</title>
    <description>Created with Sketch (http://www.bohemiancoding.com/sketch)</description>
    <defs></defs>
    <g id="Points-of-interest" stroke="none" stroke-width="1" fill="none" fill-rule="evenodd" sketch:type="MSPage">
        <path d="M25.9151126,170.39893 L25.7947801,168.956002 L23.1266204,168.96767 L22.693613,168.973504 C22.701193,168.927805 22.708773,168.880161 22.708773,168.834462 C22.708773,168.779039 22.701193,168.726534 22.693613,168.671112 C22.5827555,164.967531 19.6265558,162.001945 15.9957363,162 C12.2862742,162.001945 9.28933201,165.08421 9.28743701,168.88794 L9.30070201,168.88794 C9.30070201,168.940445 9.31017701,168.988089 9.32059951,169.041567 L8.58628709,169.043511 L6.13794737,169.057124 L5,188.55221 C5,188.938223 5.14022998,189.304789 5.41216245,189.576067 C5.68125242,189.847345 6.02898488,190 6.40229984,190 L25.5910677,190 C25.9653301,190 26.3225376,189.847345 26.584995,189.576067 C26.8512425,189.304789 27,188.938223 27,188.55221 L25.9151126,170.39893 L25.9151126,170.39893 L25.9151126,170.39893 L25.9151126,170.39893 Z M12.0872992,168.88794 L12.0872992,168.88794 C12.0872992,168.880161 12.0872992,168.870438 12.0891942,168.864604 C12.0891942,168.854881 12.0910892,168.84613 12.0910892,168.834462 L12.0910892,168.822794 C12.1299367,166.6409 13.861019,164.881967 15.9957363,164.877105 C18.150351,164.881967 19.8956458,166.672987 19.8994358,168.88794 L19.9079633,168.88794 C19.9079633,168.921971 19.9155433,168.950168 19.9212283,168.9842 L12.0711917,169.024065 C12.0749817,168.978366 12.0872992,168.936556 12.0872992,168.88794 L12.0872992,168.88794 Z M21.7205306,184.993506 C21.5774581,185.147133 21.3813256,185.230753 21.1671907,185.230753 L10.4613894,185.230753 C10.2482019,185.230753 10.0577544,185.147133 9.90615444,184.993506 C9.75834446,184.841824 9.67591197,184.638608 9.67591197,184.423725 L10.3088419,173.544397 L11.6789267,173.538563 L13.0755416,173.52884 L18.4052285,173.500642 L19.7952108,173.494808 L21.2799432,173.481196 L21.3519531,174.294058 L21.9555106,184.423725 C21.9555106,184.638608 21.8721306,184.841824 21.7205306,184.993506 L21.7205306,184.993506 Z M21.7205306,184.993506" id="shopping--pink" fill="#FF708E" sketch:type="MSShapeGroup"></path>
        <path d="M25.9151126,130.39893 L25.7947801,128.956002 L23.1266204,128.96767 L22.693613,128.973504 C22.701193,128.927805 22.708773,128.880161 22.708773,128.834462 C22.708773,128.779039 22.701193,128.726534 22.693613,128.671112 C22.5827555,124.967531 19.6265558,122.001945 15.9957363,122 C12.2862742,122.001945 9.28933201,125.08421 9.28743701,128.88794 L9.30070201,128.88794 C9.30070201,128.940445 9.31017701,128.988089 9.32059951,129.041567 L8.58628709,129.043511 L6.13794737,129.057124 L5,148.55221 C5,148.938223 5.14022998,149.304789 5.41216245,149.576067 C5.68125242,149.847345 6.02898488,150 6.40229984,150 L25.5910677,150 C25.9653301,150 26.3225376,149.847345 26.584995,149.576067 C26.8512425,149.304789 27,148.938223 27,148.55221 L25.9151126,130.39893 L25.9151126,130.39893 L25.9151126,130.39893 L25.9151126,130.39893 Z M12.0872992,128.88794 L12.0872992,128.88794 C12.0872992,128.880161 12.0872992,128.870438 12.0891942,128.864604 C12.0891942,128.854881 12.0910892,128.84613 12.0910892,128.834462 L12.0910892,128.822794 C12.1299367,126.6409 13.861019,124.881967 15.9957363,124.877105 C18.150351,124.881967 19.8956458,126.672987 19.8994358,128.88794 L19.9079633,128.88794 C19.9079633,128.921971 19.9155433,128.950168 19.9212283,128.9842 L12.0711917,129.024065 C12.0749817,128.978366 12.0872992,128.936556 12.0872992,128.88794 L12.0872992,128.88794 Z M21.7205306,144.993506 C21.5774581,145.147133 21.3813256,145.230753 21.1671907,145.230753 L10.4613894,145.230753 C10.2482019,145.230753 10.0577544,145.147133 9.90615444,144.993506 C9.75834446,144.841824 9.67591197,144.638608 9.67591197,144.423725 L10.3088419,133.544397 L11.6789267,133.538563 L13.0755416,133.52884 L18.4052285,133.500642 L19.7952108,133.494808 L21.2799432,133.481196 L21.3519531,134.294058 L21.9555106,144.423725 C21.9555106,144.638608 21.8721306,144.841824 21.7205306,144.993506 L21.7205306,144.993506 Z M21.7205306,144.993506" id="shopping--lp-blue" fill="#206FAC" sketch:type="MSShapeGroup"></path>
        <path d="M25.9151126,90.3989304 L25.7947801,88.9560024 L23.1266204,88.9676702 L22.693613,88.9735042 C22.701193,88.927805 22.708773,88.8801611 22.708773,88.8344619 C22.708773,88.7790395 22.701193,88.726534 22.693613,88.6711116 C22.5827555,84.9675313 19.6265558,82.0019446 15.9957363,82 C12.2862742,82.0019446 9.28933201,85.0842102 9.28743701,88.8879397 L9.30070201,88.8879397 C9.30070201,88.9404452 9.31017701,88.988089 9.32059951,89.0415668 L8.58628709,89.0435115 L6.13794737,89.057124 L5,108.55221 C5,108.938223 5.14022998,109.304789 5.41216245,109.576067 C5.68125242,109.847345 6.02898488,110 6.40229984,110 L25.5910677,110 C25.9653301,110 26.3225376,109.847345 26.584995,109.576067 C26.8512425,109.304789 27,108.938223 27,108.55221 L25.9151126,90.3989304 L25.9151126,90.3989304 L25.9151126,90.3989304 L25.9151126,90.3989304 Z M12.0872992,88.8879397 L12.0872992,88.8879397 C12.0872992,88.8801611 12.0872992,88.8704379 12.0891942,88.864604 C12.0891942,88.8548807 12.0910892,88.8461298 12.0910892,88.8344619 L12.0910892,88.822794 C12.1299367,86.6409001 13.861019,84.8819669 15.9957363,84.8771053 C18.150351,84.8819669 19.8956458,86.6729868 19.8994358,88.8879397 L19.9079633,88.8879397 C19.9079633,88.921971 19.9155433,88.9501684 19.9212283,88.9841997 L12.0711917,89.024065 C12.0749817,88.9783658 12.0872992,88.9365559 12.0872992,88.8879397 L12.0872992,88.8879397 Z M21.7205306,104.993506 C21.5774581,105.147133 21.3813256,105.230753 21.1671907,105.230753 L10.4613894,105.230753 C10.2482019,105.230753 10.0577544,105.147133 9.90615444,104.993506 C9.75834446,104.841824 9.67591197,104.638608 9.67591197,104.423725 L10.3088419,93.544397 L11.6789267,93.538563 L13.0755416,93.5288398 L18.4052285,93.5006424 L19.7952108,93.4948085 L21.2799432,93.481196 L21.3519531,94.2940584 L21.9555106,104.423725 C21.9555106,104.638608 21.8721306,104.841824 21.7205306,104.993506 L21.7205306,104.993506 Z M21.7205306,104.993506" id="shopping--white" fill="#FFFFFF" sketch:type="MSShapeGroup"></path>
        <path d="M25.9151126,50.3989304 L25.7947801,48.9560024 L23.1266204,48.9676702 L22.693613,48.9735042 C22.701193,48.927805 22.708773,48.8801611 22.708773,48.8344619 C22.708773,48.7790395 22.701193,48.726534 22.693613,48.6711116 C22.5827555,44.9675313 19.6265558,42.0019446 15.9957363,42 C12.2862742,42.0019446 9.28933201,45.0842102 9.28743701,48.8879397 L9.30070201,48.8879397 C9.30070201,48.9404452 9.31017701,48.988089 9.32059951,49.0415668 L8.58628709,49.0435115 L6.13794737,49.057124 L5,68.5522103 C5,68.9382227 5.14022998,69.3047887 5.41216245,69.576067 C5.68125242,69.8473452 6.02898488,70 6.40229984,70 L25.5910677,70 C25.9653301,70 26.3225376,69.8473452 26.584995,69.576067 C26.8512425,69.3047887 27,68.9382227 27,68.5522103 L25.9151126,50.3989304 L25.9151126,50.3989304 L25.9151126,50.3989304 L25.9151126,50.3989304 Z M12.0872992,48.8879397 L12.0872992,48.8879397 C12.0872992,48.8801611 12.0872992,48.8704379 12.0891942,48.864604 C12.0891942,48.8548807 12.0910892,48.8461298 12.0910892,48.8344619 L12.0910892,48.822794 C12.1299367,46.6409001 13.861019,44.8819669 15.9957363,44.8771053 C18.150351,44.8819669 19.8956458,46.6729868 19.8994358,48.8879397 L19.9079633,48.8879397 C19.9079633,48.921971 19.9155433,48.9501684 19.9212283,48.9841997 L12.0711917,49.024065 C12.0749817,48.9783658 12.0872992,48.9365559 12.0872992,48.8879397 L12.0872992,48.8879397 Z M21.7205306,64.9935063 C21.5774581,65.1471334 21.3813256,65.2307532 21.1671907,65.2307532 L10.4613894,65.2307532 C10.2482019,65.2307532 10.0577544,65.1471334 9.90615444,64.9935063 C9.75834446,64.8418238 9.67591197,64.6386082 9.67591197,64.4237247 L10.3088419,53.544397 L11.6789267,53.538563 L13.0755416,53.5288398 L18.4052285,53.5006424 L19.7952108,53.4948085 L21.2799432,53.481196 L21.3519531,54.2940584 L21.9555106,64.4237247 C21.9555106,64.6386082 21.8721306,64.8418238 21.7205306,64.9935063 L21.7205306,64.9935063 Z M21.7205306,64.9935063" id="shopping--body-grey" fill="#67747C" sketch:type="MSShapeGroup"></path>
        <path d="M25.9151126,10.3989304 L25.7947801,8.95600236 L23.1266204,8.96767024 L22.693613,8.97350418 C22.701193,8.92780498 22.708773,8.88016113 22.708773,8.83446192 C22.708773,8.77903948 22.701193,8.72653401 22.693613,8.67111157 C22.5827555,4.96753134 19.6265558,2.00194465 15.9957363,2 C12.2862742,2.00194465 9.28933201,5.08421016 9.28743701,8.88793972 L9.30070201,8.88793972 C9.30070201,8.94044519 9.31017701,8.98808904 9.32059951,9.04156683 L8.58628709,9.04351148 L6.13794737,9.05712401 L5,28.5522103 C5,28.9382227 5.14022998,29.3047887 5.41216245,29.576067 C5.68125242,29.8473452 6.02898488,30 6.40229984,30 L25.5910677,30 C25.9653301,30 26.3225376,29.8473452 26.584995,29.576067 C26.8512425,29.3047887 27,28.9382227 27,28.5522103 L25.9151126,10.3989304 L25.9151126,10.3989304 L25.9151126,10.3989304 L25.9151126,10.3989304 Z M12.0872992,8.88793972 L12.0872992,8.88793972 C12.0872992,8.88016113 12.0872992,8.87043789 12.0891942,8.86460395 C12.0891942,8.85488072 12.0910892,8.84612981 12.0910892,8.83446192 L12.0910892,8.82279404 C12.1299367,6.64090009 13.861019,4.88196687 15.9957363,4.87710525 C18.150351,4.88196687 19.8956458,6.67298677 19.8994358,8.88793972 L19.9079633,8.88793972 C19.9079633,8.92197104 19.9155433,8.95016842 19.9212283,8.98419974 L12.0711917,9.02406501 C12.0749817,8.9783658 12.0872992,8.93655589 12.0872992,8.88793972 L12.0872992,8.88793972 Z M21.7205306,24.9935063 C21.5774581,25.1471334 21.3813256,25.2307532 21.1671907,25.2307532 L10.4613894,25.2307532 C10.2482019,25.2307532 10.0577544,25.1471334 9.90615444,24.9935063 C9.75834446,24.8418238 9.67591197,24.6386082 9.67591197,24.4237247 L10.3088419,13.544397 L11.6789267,13.538563 L13.0755416,13.5288398 L18.4052285,13.5006424 L19.7952108,13.4948085 L21.2799432,13.481196 L21.3519531,14.2940584 L21.9555106,24.4237247 C21.9555106,24.6386082 21.8721306,24.8418238 21.7205306,24.9935063 L21.7205306,24.9935063 Z M21.7205306,24.9935063" id="shopping--title-grey" fill="#3B444F" sketch:type="MSShapeGroup"></path>
    </g>
</svg>

<svg width="32" height="232" viewBox="0 0 32 232" xmlns="http://www.w3.org/2000/svg" xmlns:sketch="http://www.bohemiancoding.com/sketch/ns"><title>shopping</title><g sketch:type="MSPage" fill="none"><path d="M25.915 170.399l-.12-1.443-2.668.012-.433.006.015-.139-.015-.163c-.111-3.704-3.067-6.669-6.698-6.671-3.709.002-6.706 3.084-6.708 6.888h.013l.02.154-.734.002-2.448.014-1.138 19.495c0 .386.14.753.412 1.024.269.271.617.424.99.424h19.189c.374 0 .731-.153.994-.424.266-.271.415-.638.415-1.024l-1.085-18.153zm-13.828-1.511l.002-.023.002-.03v-.012c.039-2.182 1.77-3.941 3.905-3.946 2.155.005 3.9 1.796 3.904 4.011h.009l.013.096-7.85.04.016-.136zm9.633 16.106c-.143.154-.339.237-.553.237h-10.706c-.213 0-.404-.084-.555-.237-.148-.152-.23-.355-.23-.57l.633-10.879 1.37-.006 1.397-.01 5.33-.028 1.39-.006 1.485-.014.072.813.604 10.13c0 .215-.083.418-.235.57zm0 0" fill="#FF708E" sketch:type="MSShapeGroup"/><path d="M25.915 130.399l-.12-1.443-2.668.012-.433.006.015-.139-.015-.163c-.111-3.704-3.067-6.669-6.698-6.671-3.709.002-6.706 3.084-6.708 6.888h.013l.02.154-.734.002-2.448.014-1.138 19.495c0 .386.14.753.412 1.024.269.271.617.424.99.424h19.189c.374 0 .731-.153.994-.424.266-.271.415-.638.415-1.024l-1.085-18.153zm-13.828-1.511l.002-.023.002-.03v-.012c.039-2.182 1.77-3.941 3.905-3.946 2.155.005 3.9 1.796 3.904 4.011h.009l.013.096-7.85.04.016-.136zm9.633 16.106c-.143.154-.339.237-.553.237h-10.706c-.213 0-.404-.084-.555-.237-.148-.152-.23-.355-.23-.57l.633-10.879 1.37-.006 1.397-.01 5.33-.028 1.39-.006 1.485-.014.072.813.604 10.13c0 .215-.083.418-.235.57zm0 0" fill="#206FAC" sketch:type="MSShapeGroup"/><path d="M25.915 90.399l-.12-1.443-2.668.012-.433.006.015-.139-.015-.163c-.111-3.704-3.067-6.669-6.698-6.671-3.709.002-6.706 3.084-6.708 6.888h.013l.02.154-.734.002-2.448.014-1.138 19.495c0 .386.14.753.412 1.024.269.271.617.424.99.424h19.189c.374 0 .731-.153.994-.424.266-.271.415-.638.415-1.024l-1.085-18.153zm-13.828-1.511l.002-.023.002-.03v-.012c.039-2.182 1.77-3.941 3.905-3.946 2.155.005 3.9 1.796 3.904 4.011h.009l.013.096-7.85.04.016-.136zm9.633 16.106c-.143.154-.339.237-.553.237h-10.706c-.213 0-.404-.084-.555-.237-.148-.152-.23-.355-.23-.57l.633-10.879 1.37-.006 1.397-.01 5.33-.028 1.39-.006 1.485-.014.072.813.604 10.13c0 .215-.083.418-.235.57zm0 0" fill="#fff" sketch:type="MSShapeGroup"/><path d="M25.915 50.399l-.12-1.443-2.668.012-.433.006.015-.139-.015-.163c-.111-3.704-3.067-6.669-6.698-6.671-3.709.002-6.706 3.084-6.708 6.888h.013l.02.154-.734.002-2.448.014-1.138 19.495c0 .386.14.753.412 1.024.269.271.617.424.99.424h19.189c.374 0 .731-.153.994-.424.266-.271.415-.638.415-1.024l-1.085-18.153zm-13.828-1.511l.002-.023.002-.03v-.012c.039-2.182 1.77-3.941 3.905-3.946 2.155.005 3.9 1.796 3.904 4.011h.009l.013.096-7.85.04.016-.136zm9.633 16.106c-.143.154-.339.237-.553.237h-10.706c-.213 0-.404-.084-.555-.237-.148-.152-.23-.355-.23-.57l.633-10.879 1.37-.006 1.397-.01 5.33-.028 1.39-.006 1.485-.014.072.813.604 10.13c0 .215-.083.418-.235.57zm0 0" fill="#67747C" sketch:type="MSShapeGroup"/><path d="M25.915 10.399l-.12-1.443-2.668.012-.433.006.015-.139-.015-.163c-.111-3.704-3.067-6.669-6.698-6.671-3.709.002-6.706 3.084-6.708 6.888h.013l.02.154-.734.002-2.448.014-1.138 19.495c0 .386.14.753.412 1.024.269.271.617.424.99.424h19.189c.374 0 .731-.153.994-.424.266-.271.415-.638.415-1.024l-1.085-18.153zm-13.828-1.511l.002-.023.002-.03v-.012c.039-2.182 1.77-3.941 3.905-3.946 2.155.005 3.9 1.796 3.904 4.011h.009l.013.096-7.85.04.016-.136zm9.633 16.106c-.143.154-.339.237-.553.237h-10.706c-.213 0-.404-.084-.555-.237-.148-.152-.23-.355-.23-.57l.633-10.879 1.37-.006 1.397-.01 5.33-.028 1.39-.006 1.485-.014.072.813.604 10.13c0 .215-.083.418-.235.57zm0 0" fill="#3B444F" sketch:type="MSShapeGroup"/></g></svg>
